X: 1473
T: George Cadman's One Step
B: australian traditional tunes wiki
M:2/4
L:1/16
R: Step Tune
Q: 1/4=120
K:D
V:1 
c2|"D"d2A2 d2A2|"A7"c2A2 "D"d2A2|d2d2 "A"c2e2|"E7"B6A2|"A"c2A2 c2A2|e2A2 c2d2|"A7"a2g2 Bc3|"D"d6B2|!
f2A2 d2A2|f2A2 d2A2|d2d2 "A"c2e2|"E7"B6B2|"A"e2A2 c2A2|e2A2c2A2|"A7"a2g2 Bc3|"D"d6B2|!
"D"a6a2|b2a2 f4-|f4d2c2|"A"e2B2c4-|c2e2 c'3b|c'2b2 c'2b2|a2g2 A2f2|"D"d6c2|!
f2Ac d2A2|F2Ad f2A2|F2AA d2d2|"A7"c6B2|a6a2|b2a2 G2c2|B4c4|"D"d6c2|!
"D"d2A2 d2A2|"A7"c2A2 "D"d2A2|d2d2 "A"c2e2|"E7"B6A2|"A"c2A2 c2A2|e2A2 c2d2|"A7"a2g2 Bc3|"D"d6B2|!
f2A2 d2A2|f2A2 d2A2|d2d2 "A"c2e2|"E7"B6B2|"A"e2A2 c2A2|e2A2 c2A2|"A7"a2g2 Bc3|"D"d8||
% abcbook-tune_id 6342d53a420013e28df13fff


% abcbook-boost 0
% abcbook-tablature 
% abcbook-transpose 
% abcbook-lastupdated 1665324366842
% abcbook-soundfonts 
% abcbook-repeats 1
% NFF Book 2016

